src/images/icons/vault.svg

<svg width="25" height="24" viewBox="0 0 25 24" fill="none" xmlns="http://www.w3.org/2000/svg">
<path d="M17.3 4H7.7C6.5799 4 6.01984 4 5.59202 4.21799C5.2157 4.40973 4.90973 4.7157 4.71799 5.09202C4.5 5.51984 4.5 6.0799 4.5 7.2V16.8C4.5 17.9201 4.5 18.4802 4.71799 18.908C4.90973 19.2843 5.2157 19.5903 5.59202 19.782C6.01984 20 6.5799 20 7.7 20H17.3C18.4201 20 18.9802 20 19.408 19.782C19.7843 19.5903 20.0903 19.2843 20.282 18.908C20.5 18.4802 20.5 17.9201 20.5 16.8V7.2C20.5 6.0799 20.5 5.51984 20.282 5.09202C20.0903 4.7157 19.7843 4.40973 19.408 4.21799C18.9802 4 18.4201 4 17.3 4Z" stroke="#5C70D6" stroke-width="2" stroke-linecap="round" stroke-linejoin="round"/>
<path d="M14.5 8.99991C14 8.87589 13.1851 8.87133 12.5 8.87589M12.5 8.87589C12.2709 8.87742 12.4094 8.86768 12.1 8.87589C11.2926 8.90108 10.5016 9.23666 10.5 10.1874C10.4982 11.2002 11.5 11.4999 12.5 11.4999C13.5 11.4999 14.5 11.7311 14.5 12.8124C14.5 13.625 13.6925 13.9811 12.6861 14.099C11.8861 14.099 11.5 14.1249 10.5 13.9999M12.5 8.87589L12.5 7.5M12.5 14.0994V15.5" stroke="#5C70D6" stroke-width="2" stroke-linecap="round" stroke-linejoin="round"/>
</svg>

<svg xmlns="http://www.w3.org/2000/svg" width="25" height="24" fill="none"><path stroke="#5C70D6" stroke-linecap="round" stroke-linejoin="round" stroke-width="2" d="M17.3 4H7.7c-1.12 0-1.68 0-2.108.218a2 2 0 0 0-.874.874C4.5 5.52 4.5 6.08 4.5 7.2v9.6c0 1.12 0 1.68.218 2.108a2 2 0 0 0 .874.874C6.02 20 6.58 20 7.7 20h9.6c1.12 0 1.68 0 2.108-.218a2 2 0 0 0 .874-.874c.218-.428.218-.988.218-2.108V7.2c0-1.12 0-1.68-.218-2.108a2 2 0 0 0-.874-.874C18.98 4 18.42 4 17.3 4"/><path stroke="#5C70D6" stroke-linecap="round" stroke-linejoin="round" stroke-width="2" d="M14.5 9c-.5-.124-1.315-.129-2-.124m0 0c-.23.001-.09-.008-.4 0-.807.025-1.598.36-1.6 1.311-.002 1.013 1 1.313 2 1.313s2 .231 2 1.312c0 .813-.807 1.17-1.814 1.287-.8 0-1.186.026-2.186-.1m2-5.123V7.5m0 6.6v1.4"/></svg>
